X:1
T:At Easter Morn the Lark, Ascending
T:At Easter Morn the Lark, Ascending
T:Justin Heinrich Knecht, 1793
T:Emanuel Franz August Geibel (1815–1884)
T:Public Domain Courtesy of the Cyber Hymnal™
T:Public Domain Courtesy of the Cyber Hymnal™
C:Justin Heinrich Knecht, 1793
Z:Public Domain
Z:Courtesy of the Cyber Hymnal™
%%score ( 1 2 ) ( 3 4 )
L:1/8
Q:1/4=130
M:3/4
K:D
V:1 treble 
V:2 treble 
V:3 bass 
V:4 bass 
V:1
 [Fd]2 [FA]2 [DF]2 | [DB]4 [EG]2 | [DE]4 [CA]2 | [DF]4 D2 | [DF]2 [CE]2 [B,D]2 | [CA]4 A2 | %6
w: 1.~At Eas- ter|morn the|lark, as-|cend- ing,|Loud car- oled|forth her|
w: 2.~A- wake! pour|forth your|streams, ye|fount- ains!|And praise the|Lord with|
w: 3.~A- wake! all|ye who|sloth- ful|lan- guish,|Weighed down by|win- try|
w: 4.~Then wel- come|all with|ac- cla-|ma- tion,|This sav- ing|health the|
 [Ec]4 [EB]2 | [CA]4 z2 | [Fd]2 [FA]2 [DF]2 | [DB]4 [EG]2 | [DE]4 [CA]2 | [DF]4 D2 | %12
w: mer- ry|lay,|To Heav’ns high|dome her|swift flight|wend- ing|
w: glad- some|heart;|A- wake! and|join the|cho- rus,|mount- ains!|
w: grief and|care,|Op- pressed by|mourn- ing,|filled with|an- guish,|
w: Lord doth|bring;|Free par- don|and a|full sal-|va- tion,|
 [DF]2 [CE]2 [B,D]2 | [CA]4 A2 | [Ec]4 [EB]2 | [CA]4 z2 | [Ee]2 [Ec]2 [CA]2 | [Dd]4 [DA]2 | %18
w: To greet with|praise the|new- born|day.|And as she|car- oled,|
w: Let ev- ery|tree and|plant take|part.|Ye vio- lets|in the|
w: Rouse ye from|sleep— would|ye des-|pair?|Ye mourn- ers,|of this|
w: Is ut- tered|to us|by the|spring.|Al- might- y|power new|
 [CA]4 [EG]2 | [EG]2 [DF]2 z2 | [DA]2 [=CA]2 [B,G]2 | [^CG]4 [DF]2 | [DB]4 [B,D]2 | [A,C]4 z2 | %24
w: thus re-|sound- ed|From field and|grove glad|na- ture’s|voice:|
w: mea- dows|hid- ing,|Ye flow- erets|all, with|per- fumed|breath,|
w: life so|wea- ry—|Dream- ing, per-|chance, of|days long|gone,|
w: life hath|giv- en,|Each twig, once|dead, doth|know the|dawn;|
 [A,D]2 [B,D]2 [=CD]2 | [B,D]4 [DF]2 | [DG]4 [DB]2 | [DB]2 [DA]2 z2 | [DB]2 [B,G]2 [B,E]2 | %29
w: “A- wake! let|joy be|now un-|bound- ed,|Our Lord is|
w: Pro- claim a-|loud the|joy- ous|tid- ings,|Love hath o’er-|
w: A- wake no|long- er|sad and|drea- ry,|The world, all|
w: Al- might- y|power the|tomb hath|riv- en—|A- wake! It|
 c4 [Fd]2 | [DF]4 [CE]2 | [A,D]6 |] %32
w: risen, let|all re-|joice!”|
w: come the|power of|death.|
w: na- ture|is new-|born!|
w: is the|Eas- ter|morn!|
V:2
 x6 | x6 | x6 | x4 D2 | x6 | x4 (D^D) | x6 | x6 | x6 | x6 | x6 | x4 D2 | x6 | x4 (D^D) | x6 | x6 | %16
 x6 | x6 | x6 | x6 | x6 | x6 | x6 | x6 | x6 | x6 | x6 | x6 | x6 | (C2 G2) x2 | x6 | x6 |] %32
V:3
 [D,A,]2 [D,D]2 [D,A,]2 | [G,,G,]4 [G,,E,]2 | [A,,E,]4 [A,,E,]2 | F,4 [D,F,]2 | %4
 [D,A,]2 [E,A,]2 [=F,^G,]2 | [^F,A,]4 [=F,A,]2 | [E,A,]4 [E,^G,]2 | [A,,A,]4 z2 | %8
 [D,A,]2 [D,D]2 [D,A,]2 | [G,,G,]4 [G,,E,]2 | [A,,E,]4 [A,,E,]2 | F,4 [D,F,]2 | %12
 [D,A,]2 [E,A,]2 [=F,^G,]2 | [^F,A,]4 [=F,A,]2 | [E,A,]4 [E,^G,]2 | [A,,A,]4 z2 | %16
 [C,A,]2 [E,A,]2 [=G,A,]2 | [F,A,]4 [F,A,]2 | [E,A,]4 [C,A,]2 | [D,A,]2 [D,A,]2 z2 | %20
 [D,F,]2 [^D,F,]2 [E,G,]2 | [E,G,]4 [=D,A,]2 | [G,,G,]4 [^G,,E,]2 | [A,,E,]4 z2 | %24
 [F,,F,]2 [B,,F,]2 [A,,F,]2 | [G,,G,]4 [D,A,]2 | [B,,G,]4 [G,,G,]2 | [D,G,]2 [D,F,]2 z2 | %28
 [G,,G,]2 [E,G,]2 [B,,^G,]2 | [A,,A,]4 [B,,F,]2 | [A,,A,]4 [A,,G,]2 | [D,F,]6 |] %32
V:4
 x6 | x6 | x6 | F,4 x2 | x6 | x6 | x6 | x6 | x6 | x6 | x6 | F,4 x2 | x6 | x6 | x6 | x6 | x6 | x6 | %18
 x6 | x6 | x6 | x6 | x6 | x6 | x6 | x6 | x6 | x6 | x6 | x6 | x6 | x6 |] %32

